X: 41898
T: Wacky, The
R: jig
M: 6/8
K: Gminor
|:Gd^c dGF|GAB =cde|d2c dGB|AGF G2F|
Gd^c dGF|GAB =cde|d2c dGB|AGF G3|
dgg fdc|BAB cde|dgg fdc|Bcd e=ef|
g2f2=ed|cBA Bce|d2c dGB|AGF G3:|

